X: 4493
T: Bonny Charlie
R: hornpipe
M: 4/4
K: Gmajor
E2EF G2GA|BcBA G2GA|B2E2E2G2|FGAF D4|
E2EF G2GA|BcBA G2GA|B2E2 GFED|E4e4:|
|:efed B2B2|efed B4|fgaf d2g2|fgaf d2 ga|
b2gb a2fa|g2eg f2df|e2ef gfed|e2df g4|
efed B2B2|g2 ab B4|dcBA cBAG|FGAF D4|
GFGA BABd|edef gfed|dcBA BAGF|E4 e4:|

